X:5
T:The Penultimate Jig
R:jig
C:Neil Brookes
S:Neil Brookes <neil:brookes36.freeserve.co.uk> tradtunes 2001-01-24
M:6/8
L:1/8
%Q:3/8=180
K:D
| A2a  ged | c>de gag | edc  deg | edc     A2G | A2a ged | cde gag | e>dc [B,2F2d2] | [A,7E7c7] A, |
| A2a  ged | c>de gag | edc  deg | e{ge}dc A2G | A2a ged | cde gag | e>dc [B,2F2d2] | [A,7E7c7] z |
| f>gf edc | def  edc | A>BA GAB | AGF     E2D | fzf edc | def edc | A2z  [B,2F2d2] | [A,7E7c7] z |
| f>gf edc | def  edc | A>BA GAB | AGF     E2D | fzf edc | def edc | Aza   gab      |  a6         |]
